!!!COM: Palestrina, Giovanni Perluigi da
!!!OPR: De beata virgine (1570)
!!!OTL: Benedictus
**kern	**kern	**kern	**kern
*Ibass	*Icalto	*Icant	*Icant
!Bassus	!Altus	!Cantus 2	!Cantus 1
*clefF4	*clefG2	*clefG2	*clefG2
*k[b-]	*k[b-]	*k[b-]	*k[b-]
*?:X	*?:X	*?:X	*?:X
*M4/2	*M4/2	*M4/2	*M4/2
=1	=1	=1	=1
0r	0r	1cc	0r
.	.	2b	.
.	.	2cc	.
=2	=2	=2	=2
0r	0r	4f	1r
.	.	4g	.
.	.	4a	.
.	.	4b-	.
.	.	4cc	1cc
.	.	4dd	.
.	.	4ee	.
.	.	4cc	.
=3	=3	=3	=3
0r	0r	2dd	2b
.	.	2ee	2cc
.	.	1ff	4f
.	.	.	4g
.	.	.	4a
.	.	.	4b-
=4	=4	=4	=4
1c	0r	1ee	4cc
.	.	.	4dd
.	.	.	4ee
.	.	.	4cc
2B	.	2r	2dd
2c	.	2cc	2ee
=5	=5	=5	=5
4F	0r	4a	2ff
4G	.	4b-	.
4A	.	4cc	1ee
4B-	.	4dd	.
2c	.	4ee	.
.	.	4cc	.
2d	.	[2ff	[2dd
=6	=6	=6	=6
2B-	0r	2ff]	2dd]
2c	.	2ee	1cc
1G	.	1dd	.
.	.	.	2b
=7	=7	=7	=7
1A	0c	2cc	2.cc
.	.	4a	.
.	.	4b-	4b-
1F	.	4cc	4a
.	.	4dd	4g
.	.	[2cc	[2a
=8	=8	=8	=8
1C	1e	4cc]	4a]
.	.	4b-	4g
.	.	2g	1g
1r	1d	1a	.
.	.	.	2f#
=9	=9	=9	=9
1G	0d	4g	2.g
.	.	4a	.
.	.	4b-	.
.	.	4cc	4g
2F#	.	1dd	2a
2G	.	.	2b
=10	=10	=10	=10
4C	0g	1ee	2cc
4D	.	.	.
4E	.	.	4g
4F	.	.	4a
4G	.	2dd	4b-
4F	.	.	4a
4G	.	[2gg	4b-
4A	.	.	4cc
=11	=11	=11	=11
2B-	0g	4gg]	2dd
.	.	4ff	.
2c	.	2ee	1cc
1G	.	2.dd	.
.	.	.	4b-
.	.	4cc	4a
=12	=12	=12	=12
2r	0g	2dd	2b
2c	.	2ee	2cc
2B	.	2dd	2dd
2c	.	2cc	2ee
=13	=13	=13	=13
4F	1a	2r	2ff
4G	.	.	.
4A	.	1cc	4ee
4B-	.	.	4dd
2c	1g	.	4ee
.	.	.	4cc
2G	.	2b	2dd
=14	=14	=14	=14
4C	[0g	2cc	1ee
4D	.	.	.
4E	.	4g	.
4F	.	4a	.
4G	.	4b-	1dd
4A	.	4cc	.
4B-	.	4dd	.
4G	.	4b-	.
=15	=15	=15	=15
2c	1g_	2ee-	4g
.	.	.	4a
2G	.	1dd	4b-
.	.	.	4cc
2B-	1g_	.	4dd
.	.	.	4b-
2c	.	[2cc	2ee-
=16	=16	=16	=16
0G	0g]	2cc]	1.dd
.	.	4b-	.
.	.	4a	.
.	.	1b	.
.	.	.	2g
=17	=17	=17	=17
0r	0r	2r	2a
.	.	2g	2b-
.	.	2a	2cc
.	.	2b-	2g
=18	=18	=18	=18
0r	0r	1cc	4a
.	.	.	4b-
.	.	.	4cc
.	.	.	4dd
.	.	2r	4ee
.	.	.	4ff
.	.	2g	4gg
.	.	.	4ee
=19	=19	=19	=19
0r	0r	4a	2ff
.	.	4b-	.
.	.	4cc	4ee
.	.	4dd	4dd
.	.	4ee	4cc
.	.	4ff	4a
.	.	4gg	4b-
.	.	4ee	4cc
=20	=20	=20	=20
2r	0r	2ff	2dd
2G	.	2.gg	2b-
2A	.	.	2cc
.	.	4ff	.
2B-	.	[2ff	4b-
.	.	.	4a
=21	=21	=21	=21
2c	0r	2ff]	2g
2C	.	2ee	2g
4D	.	[1ff	2.f
4C	.	.	.
4D	.	.	.
4E	.	.	4g
=22	=22	=22	=22
4F	0c	1ff]	4a
4E	.	.	4g
4F	.	.	4a
4G	.	.	4b-
2A	.	2r	[1cc
2F	.	2f	.
=23	=23	=23	=23
1c	1e	2g	1cc]
.	.	2a	.
2G	1d	[1b-	2r
[2B-	.	.	2f
=24	=24	=24	=24
4B-]	[0d	2b-]	2g
8A	.	.	.
8G	.	.	.
2F	.	2a	2a
2.G	.	4g	2.b-
.	.	4a	.
.	.	4b-	.
8F	.	4cc	8a
8E	.	.	8g
=25	=25	=25	=25
2D	1d]	4dd	4f
.	.	4ee	4g
2D	.	1ff	4a
.	.	.	4b-
1C	[1g	.	1cc
.	.	2ee	.
=26	=26	=26	=26
2.c	0g]	1ee	2r
.	.	.	2cc
8B-	.	.	.
8A	.	.	.
2B	.	2r	2dd
2c	.	[2cc	2ee
=27	=27	=27	=27
1F	0a	2cc]	2.ff
.	.	2dd	.
.	.	.	8ee
.	.	.	8dd
2r	.	2ee	1cc
2A	.	[2ff	.
=28	=28	=28	=28
2B-	1g	2ff]	2dd
2c	.	2ee	4cc
.	.	.	4b-
2.d	1f	2dd	2a
.	.	[2ff	[2dd
4c	.	.	.
=29	=29	=29	=29
2B-	[0g	2ff]	2dd]
2c	.	2ee	1cc
[1G	.	2.dd	.
.	.	.	4b-
.	.	4cc	4a
=30	=30	=30	=30
2G]	0g]	2dd	2b
2C	.	2ee	1cc
1G	.	1dd	.
.	.	.	2b
=31	=31	=31	=31
[0G	[0g	[0dd	[0b
=32	=32	=32	=32
0G]	0g]	0dd]	0b]
==	==	==	==
*-	*-	*-	*-
!!!CDT: 1525/^1526/-1594/2/2
!!!OCY: Italia
!!!AGN: Mass (Paraphrase)
!!!AST: renaissance, vocal
!!!ASW: Gregorian Mass
!!!PWK: Masses, Book 3
!!!RNB: Cadence finals: G,D,C,E,F
!!!YOR: Le Opere Complete, v. 6, p. 175
!!!YOO: Rome, Italy: Fratelli Scalera
!!!END: 1992//
!!!EED: John Miller
!!!YEC: Copyright 2000, John Miller
!!!YEN: United States of America
!!!YEM: Rights to all derivative electronic formats reserved.
!!!YEM: Refer to licensing agreement for further details.
!!!YEM: This file must be accompanied by the licensing agreement.
!!!YEM: A copy of the licensing agreement may be found at http://www.music-cog.ohio-state.edu/HumdrumDatabases/Palestrina/license.txt
!!!EMD: converted to Humdrum by Bret Aarden
